X:433
T: IN GLUCKGLUCK LEB ICH
N: E1626
O: Europa, Mitteleuropa, Deutschland, Schlesien
R: Staende -, Handwerker -, Gesellen - Lied; Trink - Lied
M: 3/4
L: 1/8
K: F
cAf | ddddfd | c2A
cGA | BBBBGB | B2A
cAf | ddddfd | c2A
cGA | BBBBGB | B2A

@@@ Tune index: 5117
